X:39
T:Marshall Saxe's Tamborine
M:2/4
L:1/8
B:Thompson's Compleat Collection of 200 Favourite Country Dances, vol. 1 (London, 1757)
Z:Transcribed and edited by Fynnian Titford-Mock, 2007
Z:abc's:AK/Fiddler's Companion
K:A
A|c/e/d/e/ c/d/B/c/|AGAB|cBcd|e/d/c/B A/c/B/A/|c/e/d/e/ c/d/B/c/|AGAB|ceac|{c}B3:|
|:e|g/b/a/b/ g/a/f/g/|e^def|gfga|b/a/g/f/ ee|g/b/a/b/ g/a/f/g/|e^dea|(3g/f/e/ (3a/g/f/ "tr"f2|e3 A|
c/e/d/e/ c/d/B/c/|AGAB|cBcd|e/d/c/B/ A/c/B/A/|c/e/d/e/ c/d/B/c/|AGAd|(3c/B/A/ (3d/c/B/ "tr"B2|A3:|

